**harm	**harte	**kern	**silbe	**kern	**silbe	**rhyme	**timestamp	**phrase	**leadinstrument
*M4/4	*M4/4	*ICvox	*	*ICvox	*	*	*	*	*
*	*	*VRlead	*	*VRbacking*VRharmonize	*	*	*	*	*
*	*	*Hstimme	*	*Nstimme	*	*	*	*	*
*C:	*C:	*C:	*	*C:	*	*	*	*	*
*	*	*M4/4	*	*M4/4	*	*	*	*	*
*	*	*clefG2	*	*clefG2	*	*	*	*	*
1r;	N	r;	.	r;	.	.	0	.	r
=1	=1	=1	=1	=1	=1	=1	=1	=1	=1
*>Letter>A	*>Letter>A	*>Letter>A	*>Letter>A	*>Letter>A	*>Letter>A	*>Letter>A	*>Letter>A	*>Letter>A	*>Letter>A
*>Label>Intro	*>Label>Intro	*>Label>Intro	*>Label>Intro	*>Label>Intro	*>Label>Intro	*>Label>Intro	*>Label>Intro	*>Label>Intro	*>Label>Intro
*M2/4	*M2/4	*	*	*	*	*	*M2/4	*M2/4	*M2/4
8.ii7	D:min7	2r	.	2r	.	.	0.232	newline	r
8.IV7	F:maj7	.	.	.	.	.	1.009	.	r
8V7	G:7	.	.	.	.	.	.	.	r
=2	=2	=2	=2	=2	=2	=2	=2	=2	=2
*M4/4	*M4/4	*M4/4	*	*M4/4	*	*	*M4/4	*M4/4	*M4/4
1V7	G:7	1r	.	1r	.	.	1.786	.	r
=3	=3	=3	=3	=3	=3	=3	=3	=3	=3
*M2/4	*M2/4	*M2/4	*	*M2/4	*	*	*M2/4	*M2/4	*M2/4
8.V	G:maj	2r	.	2r	.	.	4.894	.	r
8.I	C:maj	.	.	.	.	.	5.671	.	r
8IV	F:maj	.	.	.	.	.	6.448	.	r
=4	=4	=4	=4	=4	=4	=4	=4	=4	=4
*M4/4	*M4/4	*M4/4	*	*M4/4	*	*	*M4/4	*M4/4	*M4/4
1IV	F:maj	1r	.	1r	.	.	.	.	r
=5	=5	=5	=5	=5	=5	=5	=5	=5	=5
*M2/4	*M2/4	*M2/4	*	*M2/4	*	*	*M2/4	*M2/4	*M2/4
8.ii7	D:min7	2r	.	2r	.	.	9.555	newline	r
8.IV7	F:maj7	.	.	.	.	.	10.317	.	r
8V7	G:7	.	.	.	.	.	.	.	r
=6	=6	=6	=6	=6	=6	=6	=6	=6	=6
*M4/4	*M4/4	*M4/4	*	*M4/4	*	*	*M4/4	*M4/4	*M4/4
1V7	G:7	1r	.	1r	.	.	11.079	.	r
=7	=7	=7	=7	=7	=7	=7	=7	=7	=7
*M2/4	*M2/4	*M2/4	*	*M2/4	*	*	*M2/4	*M2/4	*M2/4
8.V	G:maj	2r	.	2r	.	.	14.125	.	r
8.I	C:maj	.	.	.	.	.	14.887	.	r
8IV	F:maj	.	.	.	.	.	.	.	r
=8	=8	=8	=8	=8	=8	=8	=8	=8	=8
*M4/4	*M4/4	*M4/4	*	*M4/4	*	*	*M4/4	*M4/4	*M4/4
1IV	F:maj	1r	.	1r	.	.	15.649	.	r
=9	=9	=9	=9	=9	=9	=9	=9	=9	=9
1Im7	C:7	1r	.	1r	.	.	18.695	newline	r
=10	=10	=10	=10	=10	=10	=10	=10	=10	=10
1Im7	C:7	1r	.	1r	.	.	21.809	.	r
=11	=11	=11	=11	=11	=11	=11	=11	=11	=11
*>Letter>B	*>Letter>B	*>Letter>B	*>Letter>B	*>Letter>B	*>Letter>B	*>Letter>B	*>Letter>B	*>Letter>B	*>Letter>B
*>Label>Verse	*>Label>Verse	*>Label>Verse	*>Label>Verse	*>Label>Verse	*>Label>Verse	*>Label>Verse	*>Label>Verse	*>Label>Verse	*>Label>Verse
1I	C:maj	8.r	.	1r	.	.	24.922	newline	voice
.	.	16G	I	.	.	.	.	.	.
.	.	8c	do	.	.	.	.	.	.
.	.	16d	be-	.	.	.	.	.	.
.	.	[16e	-lieve	.	.	.	.	.	.
.	.	16e]	_	.	.	.	.	.	.
.	.	8d	in	.	.	.	.	.	.
.	.	16c	you	.	.	.	.	.	.
.	.	8G	_	.	.	.	.	.	.
.	.	8r	.	.	.	.	.	.	.
=12	=12	=12	=12	=12	=12	=12	=12	=12	=12
2-III	E-:maj	16e-	and	1r	.	.	28.014	.	voice
.	.	8f	I	.	.	.	.	.	.
.	.	8fq	_	.	.	.	.	.	.
.	.	[16g	know	.	.	.	.	.	.
.	.	16g]	_	.	.	.	.	.	.
.	.	16f	you	.	.	.	.	.	.
.	.	16e-	be-	.	.	.	.	.	.
.	.	8fq	_	.	.	.	.	.	.
.	.	[16g	-lieve	.	.	.	.	.	.
2-VII	B-:maj	16g]	_	.	.	.	29.56	.	voice
.	.	16f	_	.	.	.	.	.	.
.	.	16f	in	.	.	.	.	.	.
.	.	8cq	_	.	.	.	.	.	.
.	.	[16d	me	.	.	A	.	.	.
.	.	16d]	_	.	.	.	.	.	.
.	.	16c	_	.	.	.	.	.	.
.	.	16B-	_	.	.	.	.	.	.
.	.	16r	.	.	.	.	.	.	.
=13	=13	=13	=13	=13	=13	=13	=13	=13	=13
.	.	8fq	_	.	.	.	.	.	.
8-IIIc	E-:maj/5	8g	oh,	1r	.	.	31.106	.	voice
4-VII	B-:maj	4f	_	.	.	.	31.879	.	voice
.	.	8cq	_	.	.	.	.	.	.
8%5IV	F:maj	8d	yeah	.	.	.	32.652	.	voice
.	.	4c	_	.	.	.	.	.	.
.	.	4r	.	.	.	.	.	.	.
=14	=14	=14	=14	=14	=14	=14	=14	=14	=14
.	.	8fq	_	.	.	.	.	.	.
8-IIIc	E-:maj/5	8g	Oh,	1r	.	.	34.198	.	voice
4-VII	B-:maj	4f	_	.	.	.	34.971	.	voice
.	.	8cq	_	.	.	.	.	.	.
8%5IV	F:maj	8d	yeah	.	.	.	35.744	.	voice
.	.	4c	_	.	.	.	.	.	.
.	.	4r	.	.	.	.	.	.	.
=15	=15	=15	=15	=15	=15	=15	=15	=15	=15
1I	C:maj	8.r	.	1r	.	.	37.29	newline	voice
.	.	16G	But	.	.	.	.	.	.
.	.	8c	now	.	.	.	.	.	.
.	.	8d	we	.	.	.	.	.	.
.	.	16e	rea	.	.	.	.	.	.
.	.	8d	_	.	.	.	.	.	.
.	.	16c	lize	.	.	.	.	.	.
.	.	8G	_	.	.	.	.	.	.
.	.	8r	.	.	.	.	.	.	.
=16	=16	=16	=16	=16	=16	=16	=16	=16	=16
2-III	E-:maj	8e-	love's	1r	.	.	40.338	.	voice
.	.	16f	not	.	.	.	.	.	.
.	.	8fq	_	.	.	.	.	.	.
.	.	[16g	all	.	.	.	.	.	.
.	.	16g]	_	.	.	.	.	.	.
.	.	16f	that	.	.	.	.	.	.
.	.	16e-	it's	.	.	.	.	.	.
.	.	8fq	_	.	.	.	.	.	.
.	.	[16g	s'posed	.	.	.	.	.	.
2-VII	B-:maj	16g]	_	.	.	.	41.862	.	voice
.	.	16f	_	.	.	.	.	.	.
.	.	16f	to	.	.	.	.	.	.
.	.	8cq	_	.	.	.	.	.	.
.	.	[16d	be	.	.	A	.	.	.
.	.	16d]	_	.	.	.	.	.	.
.	.	16c	_	.	.	.	.	.	.
.	.	16B-	_	.	.	.	.	.	.
.	.	16r	.	.	.	.	.	.	.
=17	=17	=17	=17	=17	=17	=17	=17	=17	=17
.	.	8fq	_	.	.	.	.	.	.
8-IIIc	E-:maj/5	8g	oh,	1r	.	.	43.386	.	voice
4-VII	B-:maj	4f	_	.	.	.	44.148	.	voice
.	.	8cq	_	.	.	.	.	.	.
8%5IV	F:maj	8d	yeah	.	.	.	44.91	.	voice
.	.	4c	_	.	.	.	.	.	.
.	.	4r	.	.	.	.	.	.	.
=18	=18	=18	=18	=18	=18	=18	=18	=18	=18
.	.	8fq	_	.	.	.	.	.	.
8-IIIc	E-:maj/5	8g	Oh,	1r	.	.	46.434	.	voice
4-VII	B-:maj	4f	_	.	.	.	47.196	.	voice
.	.	8cq	_	.	.	.	.	.	.
8%5IV	F:maj	8d	yeah	.	.	.	47.958	.	voice
.	.	4c	_	.	.	.	.	.	.
.	.	4r	.	.	.	.	.	.	.
=19	=19	=19	=19	=19	=19	=19	=19	=19	=19
*>Letter>C	*>Letter>C	*>Letter>C	*>Letter>C	*>Letter>C	*>Letter>C	*>Letter>C	*>Letter>C	*>Letter>C	*>Letter>C
*>Label>Chorus	*>Label>Chorus	*>Label>Chorus	*>Label>Chorus	*>Label>Chorus	*>Label>Chorus	*>Label>Chorus	*>Label>Chorus	*>Label>Chorus	*>Label>Chorus
1vi7	A:min7	8.r	.	1r	.	.	49.482	newline	voice
.	.	16A	And	.	.	.	.	.	.
.	.	8a	kno-	.	.	.	.	.	.
.	.	16b-	-wing	.	.	.	.	.	.
.	.	[16a	that	.	.	.	.	.	.
.	.	16a]	_	.	.	.	.	.	.
.	.	16fQ	_	.	.	.	.	.	.
.	.	8.g	you	.	.	.	.	.	.
.	.	8f	would	.	.	.	.	.	.
.	.	8e	have	.	.	.	.	.	.
=20	=20	=20	=20	=20	=20	=20	=20	=20	=20
1ii7	D:min7	8f	wan-	1r	.	.	52.538	.	voice
.	.	16g	-ted	.	.	.	.	.	.
.	.	[16f	it	.	.	.	.	.	.
.	.	16f]	_	.	.	.	.	.	.
.	.	8e	this	.	.	.	.	.	.
.	.	[16d	way	.	.	B	.	.	.
.	.	4d]	_	.	.	.	.	.	.
.	.	4r	.	.	.	.	.	.	.
=21	=21	=21	=21	=21	=21	=21	=21	=21	=21
1vi7	A:min7	8.r	.	1r	.	.	55.594	.	voice
.	.	16A	I	.	.	.	.	.	.
.	.	8a	do	.	.	.	.	.	.
.	.	16b-	be-	.	.	.	.	.	.
.	.	[16a	-lieve	.	.	.	.	.	.
.	.	16a]	_	.	.	.	.	.	.
.	.	32f	I'm	.	.	.	.	.	.
.	.	32g	_	.	.	.	.	.	.
.	.	8g	_	.	.	.	.	.	.
.	.	16f	fee-	.	.	.	.	.	.
.	.	8.e	-ling	.	.	.	.	.	.
=22	=22	=22	=22	=22	=22	=22	=22	=22	=22
*M2/4	*M2/4	*M2/4	*	*M2/4	*	*	*M2/4	*M2/4	*M2/4
8.ii7	D:min7	8f	stron-	2r	.	.	58.649	newline	voice
.	.	16g	-ger	.	.	.	.	.	.
8.IV7	F:maj7	16f	ev-	.	.	.	59.402	.	voice
.	.	16e	-'ry-	.	.	.	.	.	.
.	.	32d	-day	.	.	B	.	.	.
.	.	32e	_	.	.	.	.	.	.
8V7	G:7	[8d	_	.	.	.	.	.	voice
=23	=23	=23	=23	=23	=23	=23	=23	=23	=23
*M4/4	*M4/4	*M4/4	*	*M4/4	*	*	*M4/4	*M4/4	*M4/4
1V7	G:7	4.d]	_	1r	.	.	60.155	.	voice
.	.	8r	.	.	.	.	.	.	.
.	.	2r	.	.	.	.	.	.	.
=24	=24	=24	=24	=24	=24	=24	=24	=24	=24
*>Letter>B	*>Letter>B	*>Letter>B	*>Letter>B	*>Letter>B	*>Letter>B	*>Letter>B	*>Letter>B	*>Letter>B	*>Letter>B
*>Label>Verse	*>Label>Verse	*>Label>Verse	*>Label>Verse	*>Label>Verse	*>Label>Verse	*>Label>Verse	*>Label>Verse	*>Label>Verse	*>Label>Verse
1I	C:maj	8.r	.	1r	.	.	63.166	newline	voice
.	.	16G	I	.	.	.	.	.	.
.	.	8Aq	_	.	.	.	.	.	.
.	.	8c	know	.	.	.	.	.	.
.	.	8d	we	.	.	.	.	.	.
.	.	16e	real-	.	.	.	.	.	.
.	.	8d	-ly	.	.	.	.	.	.
.	.	16c	tried	.	.	C	.	.	.
.	.	8G	_	.	.	.	.	.	.
.	.	16r	.	.	.	.	.	.	.
.	.	16G	to-	.	.	.	.	.	.
=25	=25	=25	=25	=25	=25	=25	=25	=25	=25
.	.	8dq	_	.	.	.	.	.	.
2-III	E-:maj	16e-	-ge-	2g 2b- 2ee-	_	.	66.172	.	voice
.	.	8f	-ther	.	.	.	.	.	.
.	.	8fq	_	.	.	.	.	.	.
.	.	[16g	we	.	.	.	.	.	.
.	.	16g]	_	.	.	.	.	.	.
.	.	16f	had	.	.	.	.	.	.
.	.	16e-	_	.	.	.	.	.	.
.	.	8fq	_	.	.	.	.	.	.
.	.	[16g	love	.	.	.	.	.	.
2-VII	B-:maj	16g]	_	2f 2b- 2dd	_	.	67.675	.	voice
.	.	16f	_	.	.	.	.	.	.
.	.	16f	in-	.	.	.	.	.	.
.	.	8cq	_	.	.	.	.	.	.
.	.	[16d	-side	.	.	C	.	.	.
.	.	16d]	_	.	.	.	.	.	.
.	.	16c	_	.	.	.	.	.	.
.	.	16B-	_	.	.	.	.	.	.
.	.	16r	.	.	.	.	.	.	.
=26	=26	=26	=26	=26	=26	=26	=26	=26	=26
.	.	8fq	_	.	.	.	.	.	.
8.-IIIc	E-:maj/5	8g	oh,	1r	.	.	69.178	.	voice
.	.	4f	_	.	.	.	.	.	.
8.-VII	B-:maj	.	.	.	.	.	69.93	.	voice
.	.	8cq	_	.	.	.	.	.	.
8%5IV	F:maj	8d	yeah	.	.	.	70.681	.	voice
.	.	4c	_	.	.	.	.	.	.
.	.	4r	.	.	.	.	.	.	.
=27	=27	=27	=27	=27	=27	=27	=27	=27	=27
.	.	8fq	_	.	.	.	.	.	.
8.-IIIc	E-:maj/5	8g	Oh,	1r	.	.	72.185	.	voice
.	.	4f	_	.	.	.	.	.	.
8.-VII	B-:maj	.	.	.	.	.	72.936	.	voice
.	.	8cq	_	.	.	.	.	.	.
8%5IV	F:maj	8d	yeah	.	.	.	73.688	.	voice
.	.	4c	_	.	.	.	.	.	.
.	.	4r	.	.	.	.	.	.	.
=28	=28	=28	=28	=28	=28	=28	=28	=28	=28
1I	C:maj	8.r	.	1r	.	.	75.191	newline	voice
.	.	16G	So	.	.	.	.	.	.
.	.	8c	now	.	.	.	.	.	.
.	.	16d	the	.	.	.	.	.	.
.	.	16dQ	_	.	.	.	.	.	.
.	.	[16e	time	.	.	.	.	.	.
.	.	16e]	_	.	.	.	.	.	.
.	.	8d	has	.	.	.	.	.	.
.	.	16c	come	.	.	D	.	.	.
.	.	8G	_	.	.	.	.	.	.
.	.	16r	.	.	.	.	.	.	.
.	.	16G	for	.	.	.	.	.	.
=29	=29	=29	=29	=29	=29	=29	=29	=29	=29
.	.	16dQ	_	.	.	.	.	.	.
2-III	E-:maj	8e-	both	2g 2b- 2ee-	_	.	78.183	.	voice
.	.	16f	of	.	.	.	.	.	.
.	.	8fq	_	.	.	.	.	.	.
.	.	[16g	us	.	.	.	.	.	.
.	.	16g]	_	.	.	.	.	.	.
.	.	16f	to	.	.	.	.	.	.
.	.	16e-	live	.	.	.	.	.	.
.	.	8fq	_	.	.	.	.	.	.
.	.	[16g	on	.	.	.	.	.	.
2-VII	B-:maj	16g]	_	2f 2b- 2dd	_	.	79.679	.	voice
.	.	16f	_	.	.	.	.	.	.
.	.	16f	the	.	.	.	.	.	.
.	.	8cq	_	.	.	.	.	.	.
.	.	[16d	run	.	.	D	.	.	.
.	.	16d]	_	.	.	.	.	.	.
.	.	16c	_	.	.	.	.	.	.
.	.	16B-	_	.	.	.	.	.	.
.	.	16r	.	.	.	.	.	.	.
=30	=30	=30	=30	=30	=30	=30	=30	=30	=30
.	.	8fq	_	.	.	.	.	.	.
8-IIIc	E-:maj/5	8g	oh,	1r	.	.	81.175	.	voice
4-VII	B-:maj	4f	_	.	.	.	81.924	.	voice
.	.	8cq	_	.	.	.	.	.	.
8%5IV	F:maj	8d	yeah	.	.	.	82.672	.	voice
.	.	4c	_	.	.	.	.	.	.
.	.	4r	.	.	.	.	.	.	.
=31	=31	=31	=31	=31	=31	=31	=31	=31	=31
.	.	8fq	_	.	.	.	.	.	.
8-IIIc	E-:maj/5	8g	Oh,	1r	.	.	84.168	.	voice
4-VII	B-:maj	4f	_	.	.	.	84.916	.	voice
.	.	8cq	_	.	.	.	.	.	.
8%5IV	F:maj	8d	yeah	.	.	.	85.664	.	voice
.	.	4c	_	.	.	.	.	.	.
.	.	4r	.	.	.	.	.	.	.
=32	=32	=32	=32	=32	=32	=32	=32	=32	=32
*>Letter>C	*>Letter>C	*>Letter>C	*>Letter>C	*>Letter>C	*>Letter>C	*>Letter>C	*>Letter>C	*>Letter>C	*>Letter>C
*>Label>Chorus	*>Label>Chorus	*>Label>Chorus	*>Label>Chorus	*>Label>Chorus	*>Label>Chorus	*>Label>Chorus	*>Label>Chorus	*>Label>Chorus	*>Label>Chorus
1vi7	A:min7	8.r	.	1r	.	.	87.16	newline	voice
.	.	16A	And	.	.	.	.	.	.
.	.	8a	kno-	.	.	.	.	.	.
.	.	16b-	-wing	.	.	.	.	.	.
.	.	[16a	that	.	.	.	.	.	.
.	.	16a]	_	.	.	.	.	.	.
.	.	16fQ	_	.	.	.	.	.	.
.	.	8g	you	.	.	.	.	.	.
.	.	[16f	would	.	.	.	.	.	.
.	.	16f]	_	.	.	.	.	.	.
.	.	8.e	have	.	.	.	.	.	.
=33	=33	=33	=33	=33	=33	=33	=33	=33	=33
1ii7	D:min7	8f	wan-	1r	.	.	90.133	.	voice
.	.	16g	-ted	.	.	.	.	.	.
.	.	[16f	it	.	.	.	.	.	.
.	.	16f]	_	.	.	.	.	.	.
.	.	8e	this	.	.	.	.	.	.
.	.	[16d	way	.	.	B	.	.	.
.	.	4d]	_	.	.	.	.	.	.
.	.	4r	.	.	.	.	.	.	.
=34	=34	=34	=34	=34	=34	=34	=34	=34	=34
1vi7	A:min7	8.r	.	1r	.	.	93.105	.	voice
.	.	16A	I	.	.	.	.	.	.
.	.	8a	do	.	.	.	.	.	.
.	.	16b-	be-	.	.	.	.	.	.
.	.	[16a	-lieve	.	.	.	.	.	.
.	.	16a]	_	.	.	.	.	.	.
.	.	32f	I'm	.	.	.	.	.	.
.	.	32g	_	.	.	.	.	.	.
.	.	8g	_	.	.	.	.	.	.
.	.	16f	fee-	.	.	.	.	.	.
.	.	8.e	-ling	.	.	.	.	.	.
=35	=35	=35	=35	=35	=35	=35	=35	=35	=35
*>Letter>A	*>Letter>A	*>Letter>A	*>Letter>A	*>Letter>A	*>Letter>A	*>Letter>A	*>Letter>A	*>Letter>A	*>Letter>A
*>Label>Interlude	*>Label>Interlude	*>Label>Interlude	*>Label>Interlude	*>Label>Interlude	*>Label>Interlude	*>Label>Interlude	*>Label>Interlude	*>Label>Interlude	*>Label>Interlude
*M2/4	*M2/4	*	*	*	*	*	*M2/4	*M2/4	*M2/4
8.ii7	D:min7	8f	stron-	2r	.	.	96.078	->newline	voice
.	.	16g	-ger	.	.	.	.	.	.
8.IV	F:maj	16f	ev-	.	.	.	96.826	.	voice
.	.	16e	-'ry-	.	.	.	.	.	.
.	.	32d	-day	.	.	B	.	.	.
.	.	32e	_	.	.	.	.	.	.
8V	G:maj	[8d	_	.	.	.	.	.	voice
=36	=36	=36	=36	=36	=36	=36	=36	=36	=36
*M4/4	*M4/4	*M4/4	*	*M4/4	*	*	*M4/4	*M4/4	*M4/4
1V	G:maj	2d]	_	1r	.	.	97.573	.	voice
.	.	2r	.	.	.	.	.	.	.
=37	=37	=37	=37	=37	=37	=37	=37	=37	=37
*M2/4	*M2/4	*M2/4	*	*M2/4	*	*	*M2/4	*M2/4	*M2/4
8.V	G:maj	8.d	Yeah,	2r	.	.	100.563	.	voice
8.I	C:maj	[16e	yeah,	.	.	.	101.31	.	voice
.	.	8e]	_	.	.	.	.	.	.
.	.	8eq	_	.	.	.	.	.	.
8IV	F:maj	[8f	yeah	.	.	.	.	.	voice
=38	=38	=38	=38	=38	=38	=38	=38	=38	=38
*M4/4	*M4/4	*M4/4	*	*M4/4	*	*	*M4/4	*M4/4	*M4/4
1IV	F:maj	2f]	_	1r	.	.	102.057	.	voice
.	.	2r	.	.	.	.	.	.	.
=39	=39	=39	=39	=39	=39	=39	=39	=39	=39
*M2/4	*M2/4	*M2/4	*	*M2/4	*	*	*M2/4	*M2/4	*M2/4
8.ii7	D:min7	2r	.	2r	.	.	105.047	newline	voice
8.IV	F:maj	.	.	.	.	.	105.796	.	voice
8V	G:maj	.	.	.	.	.	.	.	voice
=40	=40	=40	=40	=40	=40	=40	=40	=40	=40
*M4/4	*M4/4	*M4/4	*	*M4/4	*	*	*M4/4	*M4/4	*M4/4
1V	G:maj	1r	.	1r	.	.	106.546	.	voice
=41	=41	=41	=41	=41	=41	=41	=41	=41	=41
*M2/4	*M2/4	*M2/4	*	*M2/4	*	*	*M2/4	*M2/4	*M2/4
8.V	G:maj	8.d	Yeah,	2r	.	.	109.543	.	voice
8.I	C:maj	[16e	yeah,	.	.	.	110.292	.	voice
.	.	8e]	_	.	.	.	.	.	.
.	.	8eq	_	.	.	.	.	.	.
8IV	F:maj	[8f	yeah	.	.	.	.	.	voice
=42	=42	=42	=42	=42	=42	=42	=42	=42	=42
*M4/4	*M4/4	*M4/4	*	*M4/4	*	*	*M4/4	*M4/4	*M4/4
1IV	F:maj	4f_	_	1r	.	.	111.042	.	voice
.	.	16.f]	_	.	.	.	.	.	.
.	.	32e	_	.	.	.	.	.	.
.	.	32d	_	.	.	.	.	.	.
.	.	32c	_	.	.	.	.	.	.
.	.	16r	.	.	.	.	.	.	.
.	.	2r	.	.	.	.	.	.	.
=43	=43	=43	=43	=43	=43	=43	=43	=43	=43
.	.	8B-q	_	.	.	.	.	.	.
1Im7	C:7	2.c	Hah	1r	.	.	114.039	newline	voice
.	.	4r	.	.	.	.	.	.	.
=44	=44	=44	=44	=44	=44	=44	=44	=44	=44
1Im7	C:7	1r	.	1r	.	.	117.022	.	voice
=45	=45	=45	=45	=45	=45	=45	=45	=45	=45
*>Letter>D	*>Letter>D	*>Letter>D	*>Letter>D	*>Letter>D	*>Letter>D	*>Letter>D	*>Letter>D	*>Letter>D	*>Letter>D
*>Label>Bridge	*>Label>Bridge	*>Label>Bridge	*>Label>Bridge	*>Label>Bridge	*>Label>Bridge	*>Label>Bridge	*>Label>Bridge	*>Label>Bridge	*>Label>Bridge
2.V	G:maj	1r	.	1r	.	.	120.005	newline	voice
4I	C:maj	.	.	.	.	.	122.257	.	voice
=46	=46	=46	=46	=46	=46	=46	=46	=46	=46
2.II	D:maj	1r	.	1r	.	.	123.008	.	voice
4I	C:maj	.	.	.	.	.	125.261	.	voice
=47	=47	=47	=47	=47	=47	=47	=47	=47	=47
2.V	G:maj	1r	.	1r	.	.	126.012	.	voice
4I	C:maj	.	.	.	.	.	128.264	.	voice
=48	=48	=48	=48	=48	=48	=48	=48	=48	=48
!!Double Time
*A:	*A:	*A:	*	*A:	*	*	*	*	*
1Im7	A:7	1r	.	1r	.	.	129.015	newline	voice
=49	=49	=49	=49	=49	=49	=49	=49	=49	=49
1Im7	A:7	1r	.	1r	.	.	132.095	.	voice
=50	=50	=50	=50	=50	=50	=50	=50	=50	=50
1Im7	A:7	1r	.	1r	.	.	.	.	voice
=51	=51	=51	=51	=51	=51	=51	=51	=51	=51
1Im7	A:7	1r	.	1r	.	.	.	.	voice
=52	=52	=52	=52	=52	=52	=52	=52	=52	=52
1Im7	A:7	1r	.	1r	.	.	135.176	newline	voice
=53	=53	=53	=53	=53	=53	=53	=53	=53	=53
1Im7	A:7	4A	Af-	1r	.	.	.	.	voice
.	.	8c#	-ter	.	.	.	.	.	.
.	.	8e	what	.	.	.	.	.	.
.	.	8r	.	.	.	.	.	.	.
.	.	4a	you	.	.	.	.	.	.
.	.	16aQ	_	.	.	.	.	.	.
.	.	8b	meant	.	.	.	.	.	.
=54	=54	=54	=54	=54	=54	=54	=54	=54	=54
1V7	E:7	8r	.	1r	.	.	138.202	.	voice
.	.	16gQ	_	.	.	.	.	.	.
.	.	4f#	to	.	.	.	.	.	.
.	.	[8e	me	.	.	A	.	.	.
.	.	2e]	_	.	.	.	.	.	.
=55	=55	=55	=55	=55	=55	=55	=55	=55	=55
1V7	E:7	2r	.	1r	.	.	.	.	voice
.	.	8f#q	_	.	.	.	.	.	.
.	.	4.g#	ooh,	.	.	.	.	.	.
.	.	[8f#	ba	.	.	.	.	.	.
=56	=56	=56	=56	=56	=56	=56	=56	=56	=56
1II	B:maj	8f#]	_	1r	.	.	141.229	.	voice
.	.	8d	by	.	.	.	.	.	.
.	.	8c#	_	.	.	.	.	.	.
.	.	[8B	now,	.	.	.	.	.	.
.	.	4.B]	_	.	.	.	.	.	.
.	.	[8f#	I	.	.	.	.	.	.
=57	=57	=57	=57	=57	=57	=57	=57	=57	=57
1VI	F#:maj	8f#]	_	1r	.	.	142.742	.	voice
.	.	4f#	can	.	.	.	.	.	.
.	.	[8f#	make	.	.	.	.	.	.
.	.	8f#]	_	.	.	.	.	.	.
.	.	8g#	it	.	.	.	.	.	.
.	.	8a#	_	.	.	.	.	.	.
.	.	[8g#	ea	.	.	.	.	.	.
=58	=58	=58	=58	=58	=58	=58	=58	=58	=58
1III	C#:maj	8g#]	_	1r	.	.	144.256	.	voice
.	.	8e#	si	.	.	.	.	.	.
.	.	8d#	_	.	.	.	.	.	.
.	.	[8c#	ly	.	.	A	.	.	.
.	.	4c#]	_	.	.	.	.	.	.
.	.	4r	.	.	.	.	.	.	.
=59	=59	=59	=59	=59	=59	=59	=59	=59	=59
2III	C#:maj	1r	.	2c# 2g#	Yeah,	.	.	.	voice
2II	B:maj	.	.	2B 2f#	yeah,	.	146.526	.	voice
=60	=60	=60	=60	=60	=60	=60	=60	=60	=60
1Im7	A:7	1r	.	[1A [1e	yeah	.	147.282	newline	voice
=61	=61	=61	=61	=61	=61	=61	=61	=61	=61
1Im7	A:7	8A	I	2A] 2e]	_	.	.	.	voice
.	.	4c#	know	.	.	.	.	.	.
.	.	[8e	that	.	.	.	.	.	.
.	.	8e]	_	2r	.	.	.	.	.
.	.	4a	we	.	.	.	.	.	.
.	.	16aQ	_	.	.	.	.	.	.
.	.	[8b	both	.	.	.	.	.	.
=62	=62	=62	=62	=62	=62	=62	=62	=62	=62
1V7	E:7	8b]	_	[1B [1e	_	.	150.26	.	voice
.	.	16gQ	_	.	.	.	.	.	.
.	.	4f#	a-	.	.	.	.	.	.
.	.	[8e	-gree	.	.	A	.	.	.
.	.	4e]	_	.	.	.	.	.	.
.	.	4r	.	.	.	.	.	.	.
=63	=63	=63	=63	=63	=63	=63	=63	=63	=63
1V7	E:7	4g#	best	2B] 2e]	_	.	.	.	voice
.	.	8g#	thing	.	.	.	.	.	.
.	.	8f#	to	.	.	.	.	.	.
.	.	8g#	hap-	4B] 4e]	_	.	.	.	.
.	.	8f#	-pen	.	.	.	.	.	.
.	.	8e	to	4r	.	.	.	.	.
.	.	8f#q	_	.	.	.	.	.	.
.	.	[8g#	you	.	.	.	.	.	.
=64	=64	=64	=64	=64	=64	=64	=64	=64	=64
1II	B:maj	8g#]	_	1B 1f#	_	.	153.238	.	voice
.	.	4f#	_	.	.	.	.	.	.
.	.	8r	.	.	.	.	.	.	.
.	.	4.r	.	.	.	.	.	.	.
.	.	8~c#	the	.	.	.	.	.	.
=65	=65	=65	=65	=65	=65	=65	=65	=65	=65
1VI	F#:maj	4cc#	best	1c# 1f#	_	.	154.726	.	voice
.	.	8cc#	thing	.	.	.	.	.	.
.	.	8cc#	to	.	.	.	.	.	.
.	.	8a#	hap-	.	.	.	.	.	.
.	.	8g#	-pen	.	.	.	.	.	.
.	.	8f#	to	.	.	.	.	.	.
.	.	[8a#	me,	.	.	A	.	.	.
=66	=66	=66	=66	=66	=66	=66	=66	=66	=66
*	*	*	*	*clefC3	*	*	*	*	*
1III	C#:maj	8a#]	_	1r	.	.	156.215	.	voice
.	.	[4.g#	_	.	.	.	.	.	.
.	.	4.g#]	_	.	.	.	.	.	.
.	.	8f#	y-	.	.	.	.	.	.
=67	=67	=67	=67	=67	=67	=67	=67	=67	=67
2III	C#:maj	4.g#	-yeah,	2c# 2g#	Yeah,	.	.	.	voice
.	.	8f#	y-	.	.	.	.	.	.
2II	B:maj	4.f#	-yeah,	2B 2f#	yeah,	.	158.448	.	voice
.	.	8e	y...	.	.	.	.	.	.
=68	=68	=68	=68	=68	=68	=68	=68	=68	=68
*>Letter>E	*>Letter>E	*>Letter>E	*>Letter>E	*>Letter>E	*>Letter>E	*>Letter>E	*>Letter>E	*>Letter>E	*>Letter>E
*>Label>Outro	*>Label>Outro	*>Label>Outro	*>Label>Outro	*>Label>Outro	*>Label>Outro	*>Label>Outro	*>Label>Outro	*>Label>Outro	*>Label>Outro
*B:	*B:	*B:	*	*	*	*	*	*	*
1-VII	A:maj	1r	.	2.A 2.e	yeah!	.	159.193	newline	.
.	.	.	.	4r	.	.	.	.	.
=69	=69	=69	=69	=69	=69	=69	=69	=69	=69
1IV	E:maj	1r	.	1r	.	.	160.697	.	.
=70	=70	=70	=70	=70	=70	=70	=70	=70	=70
1Im7	B:7	1r	.	1r	.	.	162.202	.	.
=71	=71	=71	=71	=71	=71	=71	=71	=71	=71
1Im7	B:7	1r	.	1r	.	.	.	.	.
=72	=72	=72	=72	=72	=72	=72	=72	=72	=72
1-VII	A:maj	1r	.	1r	.	.	165.21	.	.
=73	=73	=73	=73	=73	=73	=73	=73	=73	=73
1IV	E:maj	1r	.	1r	.	.	166.715	.	.
=74	=74	=74	=74	=74	=74	=74	=74	=74	=74
1Im7	B:7	1r	.	8e 8a	Wow	.	168.219	.	.
.	.	.	.	4.f# 4.b	_	.	.	.	.
.	.	.	.	2r	.	.	.	.	.
=75	=75	=75	=75	=75	=75	=75	=75	=75	=75
1Im7	B:7	1r	.	1r	.	.	.	.	.
=76	=76	=76	=76	=76	=76	=76	=76	=76	=76
1-VII	A:maj	1r	.	1r	.	.	171.228	newline	.
=77	=77	=77	=77	=77	=77	=77	=77	=77	=77
1IV	E:maj	1r	.	1r	.	.	172.696	.	.
=78	=78	=78	=78	=78	=78	=78	=78	=78	=78
1Im7	B:7	1r	.	8e 8a	Wow	.	174.165	.	.
.	.	.	.	4.f# 4.b	_	.	.	.	.
.	.	.	.	2r	.	.	.	.	.
=79	=79	=79	=79	=79	=79	=79	=79	=79	=79
1Im7	B:7	1r	.	1r	.	.	.	.	.
=80	=80	=80	=80	=80	=80	=80	=80	=80	=80
1-VII	A:maj	1r	.	1r	.	.	177.101	.	.
=81	=81	=81	=81	=81	=81	=81	=81	=81	=81
1IV	E:maj	1r	.	1r	.	.	178.569	.	.
=82	=82	=82	=82	=82	=82	=82	=82	=82	=82
1Im7	B:7	1r	.	8e 8a	Wow	.	180.037	.	.
.	.	.	.	4.f# 4.b	_	.	.	.	.
.	.	.	.	2r	.	.	.	.	.
=83	=83	=83	=83	=83	=83	=83	=83	=83	=83
1Im7	B:7	1r	.	1r	.	.	.	.	.
=84	=84	=84	=84	=84	=84	=84	=84	=84	=84
*	*	*	*	*clefC3	*	*	*	*	*
1-VII	A:maj	2r	.	2r	.	.	182.973	newline	.
.	.	4g#	Fee-	4c#	Fee-	.	.	.	.
.	.	4b	-lin'	4e	-lin'	.	.	.	.
=85	=85	=85	=85	=85	=85	=85	=85	=85	=85
1IV	E:maj	4b	stron-	4e	stron-	.	184.437	.	.
.	.	4b	-ger	4e	-ger	.	.	.	.
.	.	4b	ev-	4e	ev-	.	.	.	.
.	.	8g#	-'ry-	8c#	-'ry-	.	.	.	.
.	.	[8f#	-day	[8B	-day	.	.	.	.
=86	=86	=86	=86	=86	=86	=86	=86	=86	=86
1Im7	B:7	1f#_	_	1B_	_	.	185.901	.	.
=87	=87	=87	=87	=87	=87	=87	=87	=87	=87
1Im7	B:7	2f#]	_	2B]	_	.	.	.	.
.	.	4f#]	_	4B]	_	.	.	.	.
.	.	4r	.	4r	.	.	.	.	.
=88	=88	=88	=88	=88	=88	=88	=88	=88	=88
1-VII	A:maj	2r	.	2r	.	.	188.828	.	.
.	.	4f#	Fee-	4B	Fee-	.	.	.	.
.	.	4g#	-lin'	4c#	-lin'	.	.	.	.
=89	=89	=89	=89	=89	=89	=89	=89	=89	=89
1IV	E:maj	4b	stron-	4e	stron-	.	190.292	.	.
.	.	4b	-ger	4e	-ger	.	.	.	.
.	.	4b	ev-	4e	ev-	.	.	.	.
.	.	8g#	-'ry-	8c#	-'ry-	.	.	.	.
.	.	[8f#	-day	[8B	-day	.	.	.	.
=90	=90	=90	=90	=90	=90	=90	=90	=90	=90
1Im7	B:7	1f#_	_	1B_	_	.	191.755	.	.
=91	=91	=91	=91	=91	=91	=91	=91	=91	=91
1Im7	B:7	2f#]	_	2B]	_	.	.	.	.
.	.	4f#]	_	4B]	_	.	.	.	.
.	.	4r	.	4r	.	.	.	.	.
=92	=92	=92	=92	=92	=92	=92	=92	=92	=92
1-VII	A:maj	1r	.	2r	.	.	194.683	newline	.
.	.	.	.	4c# 4g#	Fee-	.	.	.	.
.	.	.	.	4e 4b	-lin'	.	.	.	.
=93	=93	=93	=93	=93	=93	=93	=93	=93	=93
1IV	E:maj	1r	.	4e 4b	stron-	.	196.172	.	.
.	.	.	.	4e 4b	-ger	.	.	.	.
.	.	.	.	4e 4b	ev-	.	.	.	.
.	.	.	.	8c# 8g#	-'ry-	.	.	.	.
.	.	.	.	[8B [8f#	-day	.	.	.	.
=94	=94	=94	=94	=94	=94	=94	=94	=94	=94
1Im7	B:7	1r	.	1B_ 1f#_	_	.	197.66	.	.
=95	=95	=95	=95	=95	=95	=95	=95	=95	=95
1Im7	B:7	8e 8b	(vocalizing)	2B] 2f#]	_	.	.	.	.
.	.	8c# 8g#	_	.	.	.	.	.	.
.	.	8A 8e	_	.	.	.	.	.	.
.	.	8B 8f#	_	.	.	.	.	.	.
.	.	8r	.	4B] 4f#]	_	.	.	.	.
.	.	8B 8f#	_	.	.	.	.	.	.
.	.	[4A [4e	_	4r	.	.	.	.	.
=96	=96	=96	=96	=96	=96	=96	=96	=96	=96
1-VII	A:maj	1A] 1e]	_	2r	.	.	200.638	.	.
.	.	.	.	4c# 4g#	Fee-	.	.	.	.
.	.	.	.	4e 4b	-lin'	.	.	.	.
=97	=97	=97	=97	=97	=97	=97	=97	=97	=97
1IV	E:maj	1r	.	4e 4b	stron-	.	202.126	.	.
.	.	.	.	4e 4b	-ger	.	.	.	.
.	.	.	.	4e 4b	ev-	.	.	.	.
.	.	.	.	8c# 8g#	-'ry-	.	.	.	.
.	.	.	.	[8B [8f#	-day	.	.	.	.
=98	=98	=98	=98	=98	=98	=98	=98	=98	=98
1Im7	B:7	1r	.	1B_ 1f#_	_	.	203.615	.	.
=99	=99	=99	=99	=99	=99	=99	=99	=99	=99
1Im7	B:7	8e 8b	(vocalizing)	2B] 2f#]	_	.	.	.	.
.	.	8c# 8g#	_	.	.	.	.	.	.
.	.	8A 8e	_	.	.	.	.	.	.
.	.	8B 8f#	_	.	.	.	.	.	.
.	.	8r	.	4B] 4f#]	_	.	.	.	.
.	.	8B 8f#	_	.	.	.	.	.	.
.	.	[4A [4e	_	4r	.	.	.	.	.
=100	=100	=100	=100	=100	=100	=100	=100	=100	=100
1-VII	A:maj	1A] 1e]	_	2r	.	.	206.593	newline	.
.	.	.	.	4c# 4g#	Fee-	.	.	.	.
.	.	.	.	4e 4b	-lin'	.	.	.	.
=101	=101	=101	=101	=101	=101	=101	=101	=101	=101
1IV	E:maj	1r	.	4e 4b	stron-	.	208.067	.	.
.	.	.	.	4e 4b	-ger	.	.	.	.
.	.	.	.	4e 4b	ev-	.	.	.	.
.	.	.	.	8c# 8g#	-'ry-	.	.	.	.
.	.	.	.	[8B [8f#	-day	.	.	.	.
=102	=102	=102	=102	=102	=102	=102	=102	=102	=102
1Im7	B:7	1r	.	1B_ 1f#_	_	.	209.542	.	.
=103	=103	=103	=103	=103	=103	=103	=103	=103	=103
1Im7	B:7	8e 8b	(vocalizing)	2B] 2f#]	_	.	.	.	.
.	.	8c# 8g#	_	.	.	.	.	.	.
.	.	8A 8e	_	.	.	.	.	.	.
.	.	8B 8f#	_	.	.	.	.	.	.
.	.	8r	.	4B] 4f#]	_	.	.	.	.
.	.	8B 8f#	_	.	.	.	.	.	.
.	.	[4A [4e	_	4r	.	.	.	.	.
=104	=104	=104	=104	=104	=104	=104	=104	=104	=104
1-VII	A:maj	1A] 1e]	_	2r	.	.	212.492	.	.
.	.	.	.	4c# 4g#	Fee-	.	.	.	.
.	.	.	.	4e 4b	-lin'	.	.	.	.
=105	=105	=105	=105	=105	=105	=105	=105	=105	=105
1IV	E:maj	1r	.	4e 4b	stron-	.	213.966	.	.
.	.	.	.	4e 4b	-ger	.	.	.	.
.	.	.	.	4e 4b	ev-	.	.	.	.
.	.	.	.	8c# 8g#	-'ry-	.	.	.	.
.	.	.	.	[8B [8f#	-day	.	.	.	.
=106	=106	=106	=106	=106	=106	=106	=106	=106	=106
1Im7	B:7	1r	.	1B_ 1f#_	_	.	215.441	.	.
=107	=107	=107	=107	=107	=107	=107	=107	=107	=107
1Im7	B:7	8e 8b	(vocalizing)	2B] 2f#]	_	.	.	.	.
.	.	8c# 8g#	_	.	.	.	.	.	.
.	.	8A 8e	_	.	.	.	.	.	.
.	.	8B 8f#	_	.	.	.	.	.	.
.	.	8r	.	4B] 4f#]	_	.	.	.	.
.	.	8B 8f#	_	.	.	.	.	.	.
.	.	[4A [4e	_	4r	.	.	.	.	.
=108	=108	=108	=108	=108	=108	=108	=108	=108	=108
1-VII	A:maj	1A] 1e]	_	2r	.	.	218.39	newline	.
.	.	.	.	4c# 4g#	Fee-	.	.	.	.
.	.	.	.	4e 4b	-lin'	.	.	.	.
=109	=109	=109	=109	=109	=109	=109	=109	=109	=109
1IV	E:maj	1r	.	4e 4b	stron-	.	219.882	.	.
.	.	.	.	4e 4b	-ger	.	.	.	.
.	.	.	.	4e 4b	ev-	.	.	.	.
.	.	.	.	8c# 8g#	-'ry-	.	.	.	.
.	.	.	.	[8B [8f#	-day	.	.	.	.
=110	=110	=110	=110	=110	=110	=110	=110	=110	=110
1Im7	B:7	1r	.	1B_ 1f#_	_	.	221.373	.	.
=111	=111	=111	=111	=111	=111	=111	=111	=111	=111
1Im7	B:7	8e 8b	(vocalizing)	2B] 2f#]	_	.	.	.	.
.	.	8c# 8g#	_	.	.	.	.	.	.
.	.	8A 8e	_	.	.	.	.	.	.
.	.	8B 8f#	_	.	.	.	.	.	.
.	.	8r	.	4B] 4f#]	_	.	.	.	.
.	.	8B 8f#	_	.	.	.	.	.	.
.	.	[4A [4e	_	4r	.	.	.	.	.
=112	=112	=112	=112	=112	=112	=112	=112	=112	=112
1-VII	A:maj	1A] 1e]	_	2r	.	.	224.356	.	.
.	.	.	.	4c# 4g#	Fee-	.	.	.	.
.	.	.	.	4e 4b	-lin'	.	.	.	.
=113	=113	=113	=113	=113	=113	=113	=113	=113	=113
1IV	E:maj	1r	.	4e 4b	stron-	.	225.848	.	.
.	.	.	.	4e 4b	-ger	.	.	.	.
.	.	.	.	4e 4b	ev-	.	.	.	.
.	.	.	.	8c# 8g#	-'ry-	.	.	.	.
.	.	.	.	[8B [8f#	-day	.	.	.	.
=114	=114	=114	=114	=114	=114	=114	=114	=114	=114
1Im7	B:7	1r	.	1B_ 1f#_	_	.	227.339	.	.
=115	=115	=115	=115	=115	=115	=115	=115	=115	=115
1Im7	B:7	8e 8b	(vocalizing)	2B] 2f#]	_	.	.	.	.
.	.	8c# 8g#	_	.	.	.	.	.	.
.	.	8A 8e	_	.	.	.	.	.	.
.	.	8B 8f#	_	.	.	.	.	.	.
.	.	8r	.	4B] 4f#]	_	.	.	.	.
.	.	8B 8f#	_	.	.	.	.	.	.
.	.	[4A [4e	_	4r	.	.	.	.	.
=116	=116	=116	=116	=116	=116	=116	=116	=116	=116
*>Label>>Fadeout	*>Label>>Fadeout	*>Label>>Fadeout	*>Label>>Fadeout	*>Label>>Fadeout	*>Label>>Fadeout	*>Label>>Fadeout	*>Label>>Fadeout	*>Label>>Fadeout	*>Label>>Fadeout
1-VII	A:maj	1A] 1e]	_	2r	.	.	230.322	newline	.
.	.	.	.	4c# 4g#	Fee-	.	.	.	.
.	.	.	.	4e 4b	-lin'	.	.	.	.
=117	=117	=117	=117	=117	=117	=117	=117	=117	=117
1IV	E:maj	1r	.	4e 4b	stron-	.	231.802	.	.
.	.	.	.	4e 4b	-ger	.	.	.	.
.	.	.	.	4e 4b	ev-	.	.	.	.
.	.	.	.	8c# 8g#	-'ry-	.	.	.	.
.	.	.	.	[8B [8f#	-day	.	.	.	.
=118	=118	=118	=118	=118	=118	=118	=118	=118	=118
1Im7	B:7	1r	.	1B_ 1f#_	_	.	233.281	.	.
=119	=119	=119	=119	=119	=119	=119	=119	=119	=119
1Im7	B:7	8e 8b	(vocalizing)	2B] 2f#]	_	.	.	.	.
.	.	8c# 8g#	_	.	.	.	.	.	.
.	.	8A 8e	_	.	.	.	.	.	.
.	.	8B 8f#	_	.	.	.	.	.	.
.	.	8r	.	4B] 4f#]	_	.	.	.	.
.	.	8B 8f#	_	.	.	.	.	.	.
.	.	[4A [4e	_	4r	.	.	.	.	.
=120	=120	=120	=120	=120	=120	=120	=120	=120	=120
1-VII	A:maj	1A] 1e]	_	2r	.	.	236.241	.	.
.	.	.	.	4c# 4g#	Fee-	.	.	.	.
.	.	.	.	4e 4b	-lin'	.	.	.	.
=121	=121	=121	=121	=121	=121	=121	=121	=121	=121
1IV	E:maj	1r	.	4e 4b	stron-	.	237.721	.	.
.	.	.	.	4e 4b	-ger	.	.	.	.
.	.	.	.	4e 4b	ev-	.	.	.	.
.	.	.	.	8c# 8g#	-'ry-	.	.	.	.
.	.	.	.	[8B [8f#	-day	.	.	.	.
=122	=122	=122	=122	=122	=122	=122	=122	=122	=122
1Im7	B:7	1r	.	1B_ 1f#_	_	.	239.201	.	.
=123	=123	=123	=123	=123	=123	=123	=123	=123	=123
1Im7	B:7	8e 8b	(vocalizing)	2B] 2f#]	_	.	.	.	.
.	.	8c# 8g#	_	.	.	.	.	.	.
.	.	8A 8e	_	.	.	.	.	.	.
.	.	8B 8f#	_	.	.	.	.	.	.
.	.	8r	.	4B] 4f#]	_	.	.	.	.
.	.	8B 8f#	_	.	.	.	.	.	.
.	.	[4A [4e	_	4r	.	.	.	.	.
=124	=124	=124	=124	=124	=124	=124	=124	=124	=124
1-VII	A:maj	1A] 1e]	_	2r	.	.	242.16	newline	.
.	.	.	.	4c# 4g#	Fee-	.	.	.	.
.	.	.	.	4e 4b	-lin'	.	.	.	.
=125	=125	=125	=125	=125	=125	=125	=125	=125	=125
1IV	E:maj	1r	.	4e 4b	stron-	.	243.362	.	.
.	.	.	.	4e 4b	-ger	.	.	.	.
.	.	.	.	4e 4b	ev-	.	.	.	.
.	.	.	.	8c# 8g#	-'ry-	.	.	.	.
.	.	.	.	[8B [8f#	-day	.	.	.	.
=126	=126	=126	=126	=126	=126	=126	=126	=126	=126
1Im7	B:7	1r	.	1B_ 1f#_	_	.	244.564	.	.
=127	=127	=127	=127	=127	=127	=127	=127	=127	=127
1Im7	B:7	8e 8b	(vocalizing)	2B] 2f#]	_	.	.	.	.
.	.	8c# 8g#	_	.	.	.	.	.	.
.	.	8A 8e	_	.	.	.	.	.	.
.	.	8B 8f#	_	.	.	.	.	.	.
.	.	8r	.	4B] 4f#]	_	.	.	.	.
.	.	8B 8f#	_	.	.	.	.	.	.
.	.	4A 4e	_	4r	.	.	.	.	.
=128	=128	=128	=128	=128	=128	=128	=128	=128	=128
1-VII	A:maj	1r	.	2r	.	.	246.967	.	.
.	.	.	.	4c# 4g#	Fee-	.	.	.	.
.	.	.	.	4e 4b	-lin'	.	.	.	.
=129	=129	=129	=129	=129	=129	=129	=129	=129	=129
1IV	E:maj	1r	.	4e 4b	stron-	.	248.169	.	.
.	.	.	.	4e 4b	-ger	.	.	.	.
.	.	.	.	4e 4b	ev-	.	.	.	.
.	.	.	.	8c# 8g#	-'ry-	.	.	.	.
.	.	.	.	[8B [8f#	-day	.	.	.	.
=130	=130	=130	=130	=130	=130	=130	=130	=130	=130
1Im7	B:7	1r	.	1B_ 1f#_	_	.	249.37	.	.
=131	=131	=131	=131	=131	=131	=131	=131	=131	=131
1Im7	B:7	1r	.	2B] 2f#]	_	.	.	.	.
.	.	.	.	4B] 4f#]	_	.	.	.	.
.	.	.	.	4r	.	.	.	.	.
1r;	N	r;	.	r;	.	.	251.774	.	r
1r;	N	r;	.	r;	.	.	253.91	.	r
*-	*-	*-	*-	*-	*-	*-	*-	*-	*-
!!!BillboardChartDate: 1973/08/25, 1973/08/11
!!!BillboardPeak: 10, 10
!!!BillboardWeeksOnChart: 16, 16
!!!COC: Chicago
!!!EMD: Need to listen to song, there are clearly key changes missing. -Nat
!!!ENC: Nathaniel Condit-Schultz
!!!EST: Awating manual error checking and editing.
!!!OTL: Feelin' Stronger Every Day
!!!RDF**harte: Chris Harte's syntax, used by MIREX
!!!RDF**harmony: **recip + pitch class of root + harmonic quality
!!!RDF**leadinstrument: original McGill primary instrumentation annotation
!!!RDF**phrase: newline = linebreak in original McGill transcription
!!!RDF**timestamp: McGill audio timestamp in seconds
!!!RDT: 2017/01/12/
!!!SampleActualRank: 11, 11
!!!SampleID#: 366, 684
!!!SampleTargetRank: 9, 11
!!!MBID: 6765530c-766a-4e8c-85ef-bb9278605515
